X: 157
T: Cliffs of Moher
N: page 51
N: heptatonic
R: jig
M: 6/8
K: Ador
"Am"eaa bag| (4efaf "G"ged| "Am"c2A BAG| "Em"EFG ABc|\
"Am"eaa bag| (4efaf "G"ged| "Am"cAA BAG| "Em"EFG "Am"A3 :|
"Am"efe dBA| efe dBA|  "G"G2d dBA| GAB dBd|\
"Am"efe dBA| efe dBA|  "G"GAB dBG| "Em"EFG "Am"A3| 
~e3 dBA|~e3 dBA|"G"~G3 dBA|GAB dBd|\
"Am"efe dee|cee Bee|"G"EFG BAG|EDB, "Am" A,3|





This abc file is used to generate the MIDI files and pdf file for volume 2
of the music collection used by the Ottawa Slow (Celtic) Jam.
The file is derived from 
http://www.ceolas.org/pub/tunes/abc.tunes/sessionTunes.abc
see http://www.ceolas.org/tunes/ under the heading "Collections".
John Walsh is the originator of this collection.

I have added guitar chord accompaniment to many of the tunes and fixed
some minor transition problems with repeats. I have also maintained
the original format and page numbering. With a few exceptions there
are no tempo markings. (They were introduced for a couple of tunes
to ensure that the output MIDI file would play slowly. You can
remove these tempo indications by searching for 1/4=60 and
deleting that line.) Since these changes are fairly minor, you
can still continue using the first version 1.1 which was
typeset by Michael Lohr in 1994.

To generate the MIDI files you need the abcMIDI package and preferably the
program runabc, which you can find on my web site
http://ifdo.ca/~seymour/runabc/top.html
or on sourceforge
http://sourceforge.net/projects/abc/files/

The pdf file was generated using Jef Moine's program abcm2ps which
can be found on his web page
http://moinejf.free.fr/

The program produces a PostScript file called Out.ps which can
be viewed either Ghostview, Acrobat, or Sumatra PDF. The latter
program was used to convert the PostScript file into a PDF file.





%%pageheight  11.00in
%%pagewidth    8.50in
%%leftmargin   0.35in
%%rightmargin  0.35in
%%topmargin    0.35in
%%botmargin    0.25in
%%staffwidth   7.80in

%%topspace   0in
%%titlespace 0in

%withxrefs yes  % print the X: number in the title

%%gchordfont Helvetica 14
%%titlefont Times-Roman-Bold 16
%%titlecaps

%%headerfont Helvetica-Bold 12
%%header  $P 
%%footerfont Helvetica 10
%%footer "Ottawa Celtic Slow Jam (John Walsh Book 1 volume 2) - 2013/07 edition"

%make the notes a bit smaller
%%scale 0.78

%%vskip 3in

%%textfont Helvetica 20
%%textspace 20

%%center Ottawa Celtic Slow Jam
%%vskip 2in
%%center Tune Book
%%vskip 1in
%%center Volume II
%%textfont Helvetica 16
%%center Version 1.4
%%center updated July 08, 2013

%%newpage
%%textfont Helvetica 18
%%center *************************** INTRODUCTION ****************************
%%textoption 1
%%begintext 

     This file contains a number of well-known Irish jigs, reels,
hornpipes, and polkas, written out in Chris Walshaw's abc notation. To
print them out, first process the file with the program abc2mtex,
which will convert it to a Music TeX file, and then run that file
through Music TeX. See the abc2mtex documentation for an explanation
of the notation. Both abc2mtex and Music TeX are available for anonymous
ftp on the archive celtic.stanford.edu. 

     Like any folk music, these tunes change with time. There may be
quite different versions of some of them floating around. I have tried
to give settings which are close to what I hear played. A few tunes
are transcribed from particular performances, one or two others are
taken from books--both of these are indicated on the tune notes--but the
majority are set about as I have heard them played. 

     Quite a lot is left to the player. The settings are basic: the only
decorations indicated explicitly are rolls, triplets and quadruplets;
first and second endings are only written out when they are
substantially different. Apart from the fact that most players don't
need to be told when and where to put in a grace note, a lot of gracings
are done differently on different instruments: carefully-written-out
fiddle decorations can be a distraction to someone playing the tune on a
flute. Since the decorations are only indicated generically, not in
detail, the tunes should be playable on any of the usual instruments.
(Well..I have only checked them out on the whistle and pipes.) If some
of the details of the settings turn out to be awkward on a particular
instrument, just adapt the tune to fit--most players automatically
modify a tune slightly in order to make it fit the fingers, or to take
advantage of some particular effect on their instrument. (There are a
couple of obvious cases, where, for instance, the range is beyond the
range of the pipes, whistle, and flute. It is up to the individual to
modify the setting--i.e. to fake it--if they want to play it.) 

     One thing bears noting: I have written the hornpipes out in
straight eighth notes, but they are usually played with alternating
dotted and cut notes: i.e. what I have written as "eighth, eighth,
eighth, eighth" is often played more like "dotted eighth, sixteenth,
dotted eighth, sixteenth." The amount of emphasis is a matter of
style, so some books write out the dotted notes, others don't. I opted
for the easiest path, and wrote them out in straight eighths. 
 

	Thanks to Dan Beimborn and Seamus Keleher for suggesting
many of these tunes. (Cryptic notations such as Z:Boston just indicate
that the tune is commonly played in sessions there.  But in fact, most of
these tunes will be played in sessions all over.)

     I make apologies in advance for the typos which have surely
escaped my proof-reading. Please let me know about any obvious errors,
or any settings which seem too much at variance with what is played in
your own area. 

     When I knew the composer of a tune, I indicated it, but I only knew
the composers of a couple of the tunes. If any others have known
composers, I would appreciate hearing about it. As far as I know, the
remainder of the tunes are public domain. The copyright below does not
cover the tunes themselves, just the arrangements and the code in this
file. 
	
     Tune 35 is from Bulmer and Sharpley' book; tune 15 from Ceol
Rince na hEireann, tune 49 from Leo Rowsome's tutor, tune 4 from
O'Neill's. The remainder of this file is copyright by John B. Walsh,
January, 1994. It may be freely used, copied and distributed, as long as
this notice is included with the copy. It may not be sold, or used to
make hard copies for sale, without express permission of the author. 
%%endtext

%%%leftmargin  0in
%%%rightmargin 0in
%%%EPS index1.eps
%%leftmargin  0.35in
%%rightmargin 0.35in

%%stretchstaff yes
%%stretchlast yes
%%printtempo 0 % ignore tempo Q: indications

%%newpage 52

%************************* DOUBLE JIGS *********************************
%%scale 0.70


